X: 305
%
U:~=!turn!
T: Lady Jane Neville
C:Marshall
O:Scotland
B:Keith Norman MacDonald : "The Skye collection of the best reels & strathspeys extant" : 1887
Z:Ralph Palmer
R:Reel
M:C|
L:1/8
K:G
d | Tg2 (dg) Bgdg | Bgdg Ta2 (ab) | Tg2 (dg) Bgdg | DAFA {/F}G2 G :|
c | (Bc/d/) (TdB) (cd/e/) (ec) | (Bc/d/) (dB) {cB}A2 Ac | (Bc/d/) {/e}(dB) (cd/e/) (ec) | dgfa {/f}g2 (gc) |
(Bc/d/) (TdB) (cd/e/) (ec) | (Bc/d/) (TdB) {cB}A2 Ac | BdBd cece | dgfa ~g2 g |]


